Numix-GalliumOS/48/mimetypes/encrypted.svg

<?xml version="1.0" encoding="UTF-8" standalone="no"?>
<svg
   xmlns:dc="http://purl.org/dc/elements/1.1/"
   xmlns:cc="http://creativecommons.org/ns#"
   xmlns:rdf="http://www.w3.org/1999/02/22-rdf-syntax-ns#"
   xmlns:svg="http://www.w3.org/2000/svg"
   xmlns="http://www.w3.org/2000/svg"
   xmlns:sodipodi="http://sodipodi.sourceforge.net/DTD/sodipodi-0.dtd"
   xmlns:inkscape="http://www.inkscape.org/namespaces/inkscape"
   width="48"
   viewBox="0 0 48 48"
   height="48"
   id="svg2"
   version="1.1"
   inkscape:version="0.48.5 r10040"
   sodipodi:docname="encrypted.svg">
  <metadata
     id="metadata16">
    <rdf:RDF>
      <cc:Work
         rdf:about="">
        <dc:format>image/svg+xml</dc:format>
        <dc:type
           rdf:resource="http://purl.org/dc/dcmitype/StillImage" />
      </cc:Work>
    </rdf:RDF>
  </metadata>
  <defs
     id="defs14">
    <clipPath
       id="clipPath-897244418">
      <g
         transform="translate(0,-1004.3622)"
         id="g17">
        <path
           style="fill:#1890d0"
           inkscape:connector-curvature="0"
           d="m -24,13 c 0,1.105 -0.672,2 -1.5,2 -0.828,0 -1.5,-0.895 -1.5,-2 0,-1.105 0.672,-2 1.5,-2 0.828,0 1.5,0.895 1.5,2 z"
           transform="matrix(15.333333,0,0,11.5,414.99999,878.8622)"
           id="path19" />
      </g>
    </clipPath>
  </defs>
  <sodipodi:namedview
     pagecolor="#ffffff"
     bordercolor="#666666"
     borderopacity="1"
     objecttolerance="10"
     gridtolerance="10"
     guidetolerance="10"
     inkscape:pageopacity="0"
     inkscape:pageshadow="2"
     inkscape:window-width="1280"
     inkscape:window-height="970"
     id="namedview12"
     showgrid="true"
     inkscape:zoom="3.4766083"
     inkscape:cx="81.041391"
     inkscape:cy="-7.3730511"
     inkscape:window-x="0"
     inkscape:window-y="0"
     inkscape:window-maximized="1"
     inkscape:current-layer="svg2">
    <inkscape:grid
       type="xygrid"
       id="grid2993" />
  </sodipodi:namedview>
  <path
     style="fill:#dcdcdc"
     d="M 8,1 C 6.9714285,1 6,1.9714285 6,3 l 0,42 c 0,0.971429 1.0285714,2 2,2 l 32,0 c 0.971429,0 2,-1.028571 2,-2 L 42,14 29,1 z"
     id="path4" />
  <path
     style="fill-opacity:.196"
     d="M 29,12 29.0625,12.0625 29.21875,12 29,12 z m 2,2 11,11 0,-11 -11,0 z"
     id="path6" />
  <path
     style="fill:#fff;fill-opacity:.392"
     d="m 29,1 13,13 -11,0 c -0.971429,0 -2,-1.028571 -2,-2 L 29,1 z"
     id="path8" />
  <path
     style="color:#000000;fill:#888888;fill-opacity:1"
     inkscape:connector-curvature="0"
     id="path30"
     d="m 24.000032,15.9999 c 0,0 6.993148,0.1357 7,5 l 0,4 c 0,0 2.000003,-0.1034 2,1 L 33,36.2499 c -1.02e-4,0.9256 -0.9188,1.75 -1.928573,1.7501 L 16.928565,38 C 15.918799,37.9999 15.000094,37.1755 15,36.2499 l 3.2e-5,-10.25 c 3e-6,-1.1034 2,-1 2,-1 l 0,-4 c 0.05248,-4.8701 7.000007,-5 7,-5 z m 0,3 c 0,0 -4,-0.1525 -4,3.5 l 0,2.5 8,0 0,-2.5 c 0,-3.6525 -4,-3.5 -4,-3.5 z" />
</svg>

<svg xmlns="http://www.w3.org/2000/svg" viewBox="0 0 48 48">
 <defs>
  
 </defs>
 <path d="m 8 1 c -1.029 0 -2 0.971 -2 2 l 0 42 c 0 0.971 1.029 2 2 2 l 32 0 c 0.971 0 2 -1.029 2 -2 l 0 -31 -13 -13 z" style="fill:#dcdcdc"/>
 <path d="m 29 12 0.063 0.063 0.156 -0.063 -0.219 0 z m 2 2 11 11 0 -11 -11 0 z" style="fill-opacity:0.196"/>
 <path d="m 29 1 13 13 -11 0 c -0.971 0 -2 -1.029 -2 -2 l 0 -11 z" style="fill:#fff;fill-opacity:0.392"/>
 <path d="m 24 16 c 0 0 6.993 0.136 7 5 l 0 4 c 0 0 2 -0.103 2 1 l 0 10.25 c 0 0.926 -0.919 1.75 -1.929 1.75 l -14.14 0 c -1.01 0 -1.928 -0.825 -1.929 -1.75 l 0 -10.25 c 0 -1.103 2 -1 2 -1 l 0 -4 c 0.052 -4.87 7 -5 7 -5 z m 0 3 c 0 0 -4 -0.152 -4 3.5 l 0 2.5 8 0 0 -2.5 c 0 -3.653 -4 -3.5 -4 -3.5 z" style="fill:#888;fill-opacity:1;color:#000"/>
</svg>
